X: 15
T:Off She Goes
M:12/8
L:1/8
R:Single Jig
K:D
F2A G2B|ABc d2A|F2A G2B|AFD E2D|!
F2A G2B|ABc d2e|f2d g2f|edc d3:|!
|:faf d2f|gbg e2g|faf d2f|ecA A2e|!
faf d2f|gbg e2g|f2d g2f|edc d3:|]!
